;FLAVOR:Marlin
;TIME:9795
;Filament used: 19.9477m
;Layer height: 0.32
;MINX:53.401
;MINY:0
;MINZ:0.32
;MAXX:166.6
;MAXY:220
;MAXZ:10.88
;TARGET_MACHINE.NAME:Creality Ender-3 Pro
;Generated with Cura_SteamEngine 5.10.1
; Ender 3 Custom Start G-code
G92 E0 ; Reset Extruder
G28 ; Home all axes
G1 Z5.0 F3000 ; Move Z Axis up a bit during heating to not damage bed
M104 S175 ; Start heating up the nozzle most of the way
M190 S60 ; Start heating the bed, wait until target temperature reached
M109 S200 ; Finish heating the nozzle
G1 Z2.0 F3000 ; Move Z Axis up little to prevent scratching of Heat Bed
G1 X0.1 Y20 Z0.3 F5000.0 ; Move to start position
G1 X0.1 Y200.0 Z0.3 F1500.0 E15 ; Draw the first line
G1 X0.4 Y200.0 Z0.3 F5000.0 ; Move to side a little
G1 X0.4 Y20 Z0.3 F1500.0 E30 ; Draw the second line
G92 E0 ; Reset Extruder
G1 Z2.0 F3000 ; Move Z Axis up little to prevent scratching of Heat Bed
G1 X5 Y20 Z0.3 F5000.0 ; Move over to prevent blob squish
M82 ;absolute extrusion mode
G92 E0
G92 E0
G1 F1500 E-6.5
;LAYER_COUNT:34
;LAYER:0
M107
G0 F6000 X61.884 Y0.00 Z0.32
;TYPE:SKIRT
G1 F1500 E0
G1 F1200 X61.137 Y0.439 E0.09222
G1 X60.434 Y0.901 E0.18175
G1 X59.709 Y1.455 E0.27886
G1 X59.12 Y1.947 E0.36055
G1 X58.548 Y2.459 E0.44225
G1 X58.115 Y2.886 E0.50698
G1 X57.831 Y3.183 E0.55071
G1 X57.27 Y3.831 E0.64194
G1 X56.879 Y4.319 E0.70849
G1 X56.455 Y4.884 E0.78367
G1 X56.033 Y5.506 E0.86367
G1 X55.737 Y5.985 E0.9236
G1 X55.554 Y6.305 E0.96284
G1 X55.163 Y7.041 E1.05154
G1 X54.784 Y7.838 E1.14547
G1 X54.454 Y8.688 E1.24252
G1 X54.225 Y9.361 E1.31818
G1 X53.906 Y10.483 E1.44233
G1 X53.776 Y11.041 E1.50331
G1 X53.627 Y11.794 E1.585
G1 X53.499 Y12.83 E1.69611
G1 X53.449 Y13.469 E1.76433
G1 X53.416 Y14.186 E1.84072
G1 X53.407 Y14.743 E1.90001
G1 X53.405 Y21.815 E2.6527
G1 X53.428 Y22.851 E2.76299
G1 X53.47 Y23.835 E2.86782
G1 X53.545 Y25.044 E2.99674
G1 X53.654 Y26.332 E3.13431
G1 X53.722 Y26.993 E3.20504
G1 X53.862 Y28.111 E3.32496
G1 X54.064 Y29.468 E3.47098
G1 X54.294 Y30.786 E3.61338
G1 X54.598 Y32.283 E3.77596
G1 X54.96 Y33.833 E3.94537
G1 X55.238 Y34.898 E4.06252
G1 X55.601 Y36.16 E4.20228
G1 X55.845 Y36.947 E4.28998
G1 X56.209 Y38.039 E4.41249
G1 X56.698 Y39.391 E4.56551
G1 X57.459 Y41.3 E4.78423
G1 X58.085 Y42.731 E4.95047
G1 X58.652 Y43.935 E5.09212
G1 X59.183 Y44.992 E5.21802
G1 X59.581 Y45.748 E5.30895
G1 X59.985 Y46.478 E5.39775
G1 X60.415 Y47.224 E5.48939
G1 X61.161 Y48.468 E5.64378
G1 X61.822 Y49.502 E5.77439
G1 X62.799 Y50.941 E5.95951
G1 X63.834 Y52.365 E6.14688
G1 X64.604 Y53.361 E6.28087
G1 X65.366 Y54.303 E6.40982
G1 X67.756 Y57.365 E6.82324
G1 X69.202 Y59.359 E7.0854
G1 X70.62 Y61.435 E7.35297
G1 X71.933 Y63.478 E7.61145
G1 X73.222 Y65.615 E7.87707
G1 X74.462 Y67.807 E8.14511
G1 X75.605 Y69.972 E8.40568
G1 X76.735 Y72.267 E8.67794
G1 X77.746 Y74.472 E8.93612
G1 X78.715 Y76.751 E9.19969
G1 X79.632 Y79.095 E9.46758
G1 X80.481 Y81.461 E9.73512
G1 X81.246 Y83.797 E9.99674
G1 X81.948 Y86.167 E10.25982
G1 X82.591 Y88.584 E10.52601
G1 X83.164 Y91.011 E10.79143
G1 X83.679 Y93.51 E11.06299
G1 X84.101 Y95.903 E11.32161
G1 X84.469 Y98.382 E11.58835
G1 X84.756 Y100.806 E11.84815
G1 X84.989 Y103.374 E12.12259
G1 X85.139 Y105.784 E12.37959
G1 X85.222 Y108.314 E12.649
G1 X85.235 Y110.782 E12.91168
G1 X85.179 Y113.259 E13.17538
G1 X85.05 Y115.777 E13.44373
G1 X84.855 Y118.233 E13.70595
G1 X84.59 Y120.67 E13.96686
G1 X84.242 Y123.204 E14.23909
G1 X83.84 Y125.635 E14.50134
G1 X83.366 Y128.061 E14.76443
G1 X82.809 Y130.543 E15.03516
G1 X82.218 Y132.87 E15.29069
G1 X81.524 Y135.305 E15.56018
G1 X80.776 Y137.676 E15.82479
G1 X79.954 Y140.041 E16.09127
G1 X79.075 Y142.36 E16.35522
G1 X78.135 Y144.644 E16.6181
G1 X77.095 Y146.977 E16.88996
G1 X76.049 Y149.162 E17.14779
G1 X74.909 Y151.374 E17.41264
G1 X73.683 Y153.598 E17.68293
G1 X72.437 Y155.714 E17.94429
G1 X71.107 Y157.833 E18.21056
G1 X69.721 Y159.911 E18.47641
G1 X68.301 Y161.912 E18.73756
G1 X66.816 Y163.887 E19.00055
G1 X65.167 Y165.954 E19.28198
G1 X64.514 Y166.755 E19.39197
G1 X63.851 Y167.613 E19.50738
G1 X62.847 Y168.99 E19.68876
G1 X61.724 Y170.653 E19.90233
G1 X60.68 Y172.323 E20.11195
G1 X60.1 Y173.319 E20.23462
G1 X59.345 Y174.702 E20.40232
G1 X58.824 Y175.717 E20.52375
G1 X58.251 Y176.905 E20.66413
G1 X57.748 Y178.015 E20.79383
G1 X57.299 Y179.071 E20.91596
G1 X56.958 Y179.92 E21.01334
G1 X56.542 Y181.019 E21.13841
G1 X56.23 Y181.896 E21.23748
G1 X55.725 Y183.446 E21.41099
G1 X55.274 Y184.978 E21.58096
G1 X55.024 Y185.912 E21.68387
G1 X54.642 Y187.527 E21.8605
G1 X54.323 Y189.058 E22.02695
G1 X54.086 Y190.386 E22.17052
G1 X53.868 Y191.863 E22.32943
G1 X53.639 Y193.868 E22.54421
G1 X53.547 Y194.974 E22.66233
G1 X53.465 Y196.297 E22.80341
G1 X53.409 Y197.957 E22.98019
G1 X53.401 Y198.749 E23.06449
G1 X53.402 Y205.381 E23.77035
G1 X53.426 Y206.232 E23.86096
G1 X53.457 Y206.789 E23.92033
G1 X53.538 Y207.557 E24.00253
G1 X53.627 Y208.179 E24.0694
G1 X53.928 Y209.623 E24.22639
G1 X54.087 Y210.203 E24.2904
G1 X54.351 Y211.037 E24.38351
G1 X54.605 Y211.72 E24.46106
G1 X55.015 Y212.637 E24.56797
G1 X55.308 Y213.221 E24.63752
G1 X55.879 Y214.228 E24.76072
G1 X56.144 Y214.647 E24.81349
G1 X56.598 Y215.313 E24.89928
G1 X56.92 Y215.742 E24.95637
G1 X57.275 Y216.183 E25.01662
G1 X57.779 Y216.759 E25.09808
G1 X58.094 Y217.09 E25.14671
G1 X58.783 Y217.762 E25.24915
G1 X59.758 Y218.59 E25.38529
G1 X60.768 Y219.317 E25.51774
G1 X61.879 Y220 E25.65654
G1 F1500 E19.15654
G0 F6000 X63.691 Y220
G1 F1500 E25.65654
G1 F1200 X63.175 Y219.777 E25.71637
G1 X62.356 Y219.356 E25.81438
G1 X61.188 Y218.636 E25.96042
G1 X60.275 Y217.979 E26.08014
G1 X59.342 Y217.189 E26.21025
G1 X58.653 Y216.517 E26.31269
G1 X58.381 Y216.232 E26.35462
G1 X57.898 Y215.681 E26.43261
G1 X57.56 Y215.262 E26.4899
G1 X57.238 Y214.833 E26.54699
G1 X56.82 Y214.219 E26.62605
G1 X56.555 Y213.8 E26.67881
G1 X56.023 Y212.861 E26.79368
G1 X55.745 Y212.309 E26.85946
G1 X55.355 Y211.441 E26.96074
G1 X55.101 Y210.758 E27.0383
G1 X54.859 Y209.991 E27.1239
G1 X54.7 Y209.411 E27.18791
G1 X54.419 Y208.065 E27.33425
G1 X54.334 Y207.473 E27.39791
G1 X54.253 Y206.705 E27.4801
G1 X54.226 Y206.209 E27.53297
G1 X54.202 Y205.381 E27.62113
G1 X54.201 Y198.757 E28.32614
G1 X54.209 Y197.984 E28.40842
G1 X54.264 Y196.346 E28.58285
G1 X54.344 Y195.04 E28.72211
G1 X54.434 Y193.959 E28.83756
G1 X54.663 Y191.954 E29.05235
G1 X54.874 Y190.527 E29.20588
G1 X55.111 Y189.199 E29.34945
G1 X55.42 Y187.711 E29.5112
G1 X55.797 Y186.119 E29.68533
G1 X56.042 Y185.204 E29.78615
G1 X56.486 Y183.694 E29.95366
G1 X56.984 Y182.164 E30.12491
G1 X57.29 Y181.302 E30.22227
G1 X57.7 Y180.218 E30.34562
G1 X58.035 Y179.384 E30.44128
G1 X58.477 Y178.345 E30.56145
G1 X58.972 Y177.252 E30.68915
G1 X59.536 Y176.082 E30.82739
G1 X60.047 Y175.085 E30.94663
G1 X60.791 Y173.721 E31.112
G1 X61.358 Y172.747 E31.23195
G1 X62.387 Y171.101 E31.43855
G1 X63.51 Y169.438 E31.65213
G1 X64.484 Y168.102 E31.8281
G1 X65.134 Y167.26 E31.94131
G1 X65.787 Y166.459 E32.0513
G1 X67.441 Y164.386 E32.33356
G1 X68.94 Y162.393 E32.59898
G1 X70.387 Y160.355 E32.865
G1 X71.773 Y158.277 E33.13085
G1 X73.115 Y156.139 E33.39952
G1 X74.384 Y153.984 E33.66569
G1 X75.61 Y151.76 E33.93598
G1 X76.76 Y149.528 E34.20322
G1 X77.826 Y147.303 E34.4658
G1 X78.866 Y144.97 E34.73767
G1 X79.815 Y142.664 E35.00307
G1 X80.71 Y140.304 E35.27171
G1 X81.532 Y137.939 E35.53819
G1 X82.287 Y135.546 E35.80526
G1 X82.987 Y133.089 E36.07717
G1 X83.59 Y130.718 E36.33755
G1 X84.147 Y128.236 E36.60829
G1 X84.625 Y125.788 E36.87376
G1 X85.035 Y123.313 E37.14077
G1 X85.383 Y120.779 E37.413
G1 X85.65 Y118.319 E37.67636
G1 X85.849 Y115.818 E37.94339
G1 X85.978 Y113.3 E38.21174
G1 X86.035 Y110.8 E38.47789
G1 X86.022 Y108.287 E38.74535
G1 X85.938 Y105.757 E39.01478
G1 X85.786 Y103.302 E39.27657
G1 X85.553 Y100.734 E39.55101
G1 X85.263 Y98.288 E39.81317
G1 X84.889 Y95.764 E40.08474
G1 X84.463 Y93.349 E40.34574
G1 X83.948 Y90.85 E40.6173
G1 X83.37 Y88.4 E40.88522
G1 X82.721 Y85.961 E41.15384
G1 X82.013 Y83.57 E41.41924
G1 X81.234 Y81.191 E41.68568
G1 X80.385 Y78.825 E41.95322
G1 X79.46 Y76.46 E42.2235
G1 X78.482 Y74.159 E42.4896
G1 X77.453 Y71.913 E42.75254
G1 X76.322 Y69.618 E43.02485
G1 X75.158 Y67.413 E43.29023
G1 X73.918 Y65.221 E43.55827
G1 X72.618 Y63.065 E43.82623
G1 X71.281 Y60.984 E44.08949
G1 X69.85 Y58.889 E44.35951
G1 X68.404 Y56.895 E44.62167
G1 X65.997 Y53.811 E45.03805
G1 X65.237 Y52.872 E45.16662
G1 X64.481 Y51.894 E45.29818
G1 X63.461 Y50.492 E45.48272
G1 X62.496 Y49.071 E45.66553
G1 X61.847 Y48.056 E45.79376
G1 X61.108 Y46.825 E45.94657
G1 X60.685 Y46.091 E46.03674
G1 X60.289 Y45.375 E46.12382
G1 X59.898 Y44.633 E46.21309
G1 X59.376 Y43.594 E46.33684
G1 X58.818 Y42.41 E46.47615
G1 X58.202 Y41.004 E46.63953
G1 X57.45 Y39.119 E46.85553
G1 X56.968 Y37.786 E47.00639
G1 X56.609 Y36.71 E47.12712
G1 X56.37 Y35.939 E47.21303
G1 X56.012 Y34.696 E47.35071
G1 X55.739 Y33.651 E47.46566
G1 X55.382 Y32.124 E47.63257
G1 X55.082 Y30.648 E47.79287
G1 X54.855 Y29.35 E47.93312
G1 X54.656 Y28.012 E48.07709
G1 X54.518 Y26.91 E48.1953
G1 X54.451 Y26.264 E48.26442
G1 X54.343 Y24.994 E48.40008
G1 X54.269 Y23.801 E48.5273
G1 X54.228 Y22.833 E48.63041
G1 X54.205 Y21.815 E48.73879
G1 X54.207 Y14.755 E49.4902
G1 X54.215 Y14.223 E49.54683
G1 X54.247 Y13.531 E49.62056
G1 X54.297 Y12.892 E49.68878
G1 X54.421 Y11.893 E49.79592
G1 X54.555 Y11.223 E49.86864
G1 X54.685 Y10.665 E49.92962
G1 X54.983 Y9.618 E50.04548
G1 X55.2 Y8.978 E50.11741
G1 X55.53 Y8.128 E50.21446
G1 X55.87 Y7.416 E50.29843
G1 X56.249 Y6.702 E50.38447
G1 X56.418 Y6.406 E50.42075
G1 X56.714 Y5.927 E50.48067
G1 X57.117 Y5.333 E50.55707
G1 X57.504 Y4.819 E50.62555
G1 X57.875 Y4.355 E50.68878
G1 X58.436 Y3.707 E50.78
G1 X58.677 Y3.455 E50.81712
G1 X59.082 Y3.055 E50.8777
G1 X59.633 Y2.561 E50.95646
G1 X60.195 Y2.091 E51.03444
G1 X60.92 Y1.537 E51.13155
G1 X61.544 Y1.128 E51.21096
G1 X62.476 Y0.577 E51.32619
G1 X63.67 Y0.00 E51.46734
G1 F1500 E44.96734
G0 F6000 X66.08 Y0.00
G1 F1500 E51.46734
G1 F1200 X65.329 Y0.226 E51.55081
G1 X64.388 Y0.566 E51.6573
G1 X63.928 Y0.758 E51.71035
G1 X62.827 Y1.296 E51.84077
G1 X61.953 Y1.816 E51.94902
G1 X61.406 Y2.173 E52.01854
G1 X60.681 Y2.727 E52.11565
G1 X60.147 Y3.174 E52.18977
G1 X59.644 Y3.624 E52.2616
G1 X59.239 Y4.024 E52.32218
G1 X59.015 Y4.259 E52.35674
G1 X58.5 Y4.855 E52.44057
G1 X58.129 Y5.319 E52.5038
G1 X57.757 Y5.814 E52.56971
G1 X57.395 Y6.348 E52.63837
G1 X57.099 Y6.827 E52.6983
G1 X56.956 Y7.077 E52.72895
G1 X56.577 Y7.791 E52.81499
G1 X56.276 Y8.418 E52.88901
G1 X55.946 Y9.268 E52.98606
G1 X55.741 Y9.874 E53.05415
G1 X55.464 Y10.847 E53.16182
G1 X55.334 Y11.405 E53.2228
G1 X55.206 Y12.049 E53.29268
G1 X55.095 Y12.954 E53.38973
G1 X55.045 Y13.593 E53.45795
G1 X55.014 Y14.26 E53.52901
G1 X55.007 Y14.766 E53.58287
G1 X55.005 Y21.815 E54.33311
G1 X55.028 Y22.815 E54.43958
G1 X55.068 Y23.767 E54.54099
G1 X55.141 Y24.944 E54.6665
G1 X55.248 Y26.196 E54.80024
G1 X55.314 Y26.827 E54.86776
G1 X55.45 Y27.913 E54.98425
G1 X55.646 Y29.233 E55.12628
G1 X55.87 Y30.51 E55.26427
G1 X56.166 Y31.964 E55.4222
G1 X56.518 Y33.469 E55.5867
G1 X56.786 Y34.493 E55.69936
G1 X57.139 Y35.717 E55.83494
G1 X57.373 Y36.473 E55.91917
G1 X57.727 Y37.533 E56.03812
G1 X58.202 Y38.847 E56.18683
G1 X58.945 Y40.707 E56.4
G1 X59.551 Y42.089 E56.56061
G1 X60.1 Y43.253 E56.69759
G1 X60.613 Y44.274 E56.8192
G1 X60.997 Y45.002 E56.9068
G1 X61.385 Y45.704 E56.99217
G1 X61.801 Y46.426 E57.08086
G1 X62.533 Y47.644 E57.2321
G1 X63.17 Y48.64 E57.35793
G1 X64.123 Y50.042 E57.53836
G1 X65.128 Y51.423 E57.72014
G1 X65.87 Y52.383 E57.84928
G1 X66.628 Y53.319 E57.97747
G1 X69.052 Y56.425 E58.39681
G1 X70.498 Y58.419 E58.65896
G1 X71.942 Y60.533 E58.93144
G1 X73.303 Y62.652 E59.19949
G1 X74.614 Y64.827 E59.46978
G1 X75.865 Y67.039 E59.74025
G1 X77.04 Y69.264 E60.00805
G1 X78.171 Y71.559 E60.28037
G1 X79.218 Y73.846 E60.54807
G1 X80.205 Y76.169 E60.81671
G1 X81.138 Y78.555 E61.08938
G1 X81.987 Y80.921 E61.35692
G1 X82.78 Y83.343 E61.62816
G1 X83.494 Y85.755 E61.89589
G1 X84.149 Y88.216 E62.16694
G1 X84.732 Y90.689 E62.43736
G1 X85.247 Y93.188 E62.70892
G1 X85.677 Y95.625 E62.97231
G1 X86.057 Y98.194 E63.24871
G1 X86.35 Y100.662 E63.51323
G1 X86.583 Y103.23 E63.78767
G1 X86.737 Y105.73 E64.05425
G1 X86.822 Y108.26 E64.32368
G1 X86.835 Y110.818 E64.59594
G1 X86.777 Y113.341 E64.86454
G1 X86.648 Y115.859 E65.13289
G1 X86.445 Y118.405 E65.40472
G1 X86.176 Y120.888 E65.67054
G1 X85.828 Y123.422 E65.94277
G1 X85.41 Y125.941 E66.21454
G1 X84.928 Y128.411 E66.48239
G1 X84.371 Y130.893 E66.75312
G1 X83.756 Y133.308 E67.01836
G1 X83.05 Y135.787 E67.2927
G1 X82.288 Y138.202 E67.56222
G1 X81.466 Y140.567 E67.82871
G1 X80.555 Y142.969 E68.10213
G1 X79.597 Y145.296 E68.36996
G1 X78.557 Y147.629 E68.64182
G1 X77.471 Y149.894 E68.90917
G1 X76.311 Y152.146 E69.17879
G1 X75.085 Y154.37 E69.44908
G1 X73.793 Y156.564 E69.72007
G1 X72.451 Y158.702 E69.98873
G1 X71.039 Y160.818 E70.25948
G1 X69.579 Y162.874 E70.52787
G1 X68.066 Y164.885 E70.79572
G1 X66.407 Y166.964 E71.07881
G1 X65.754 Y167.765 E71.1888
G1 X65.118 Y168.59 E71.29967
G1 X64.157 Y169.909 E71.47336
G1 X63.05 Y171.549 E71.68395
G1 X62.037 Y173.171 E71.88749
G1 X61.482 Y174.124 E72.00487
G1 X60.75 Y175.468 E72.16775
G1 X60.248 Y176.447 E72.28485
G1 X59.693 Y177.599 E72.42095
G1 X59.206 Y178.675 E72.54665
G1 X58.771 Y179.697 E72.66487
G1 X58.442 Y180.516 E72.75881
G1 X58.038 Y181.585 E72.88044
G1 X57.738 Y182.431 E72.97597
G1 X57.247 Y183.941 E73.14497
G1 X56.81 Y185.429 E73.31003
G1 X56.57 Y186.326 E73.40886
G1 X56.199 Y187.895 E73.58045
G1 X55.899 Y189.34 E73.73753
G1 X55.662 Y190.668 E73.8811
G1 X55.458 Y192.045 E74.02926
G1 X55.229 Y194.05 E74.24404
G1 X55.141 Y195.106 E74.35683
G1 X55.063 Y196.394 E74.49416
G1 X55.009 Y198.011 E74.66636
G1 X55.001 Y198.765 E74.74661
G1 X55.002 Y205.381 E75.45077
G1 X55.026 Y206.185 E75.53638
G1 X55.049 Y206.621 E75.58285
G1 X55.13 Y207.389 E75.66504
G1 X55.211 Y207.951 E75.72548
G1 X55.483 Y209.247 E75.86642
G1 X55.63 Y209.777 E75.92496
G1 X55.864 Y210.517 E76.00756
G1 X56.085 Y211.113 E76.07522
G1 X56.475 Y211.981 E76.1765
G1 X56.737 Y212.5 E76.23837
G1 X57.231 Y213.372 E76.34504
G1 X57.496 Y213.791 E76.39781
G1 X57.899 Y214.382 E76.47394
G1 X58.199 Y214.781 E76.52707
G1 X58.52 Y215.178 E76.58141
G1 X58.982 Y215.704 E76.65592
G1 X59.231 Y215.964 E76.69424
G1 X59.859 Y216.578 E76.78771
G1 X60.792 Y217.368 E76.91783
G1 X61.654 Y217.985 E77.03066
G1 X62.722 Y218.644 E77.16422
G1 X63.541 Y219.065 E77.26224
G1 X64.642 Y219.539 E77.38982
G1 X65.467 Y219.827 E77.48282
G1 X66.053 Y220 E77.54785
G1 F1500 E71.04785
G0 F6000 X101.202 Y220
G1 F1500 E77.54785
G1 F1200 X106.383 Y219.638 E78.10062
G1 X108.123 Y219.491 E78.28647
G1 X108.678 Y219.43 E78.3459
G1 X109.771 Y219.287 E78.46322
G1 X110.432 Y219.183 E78.53444
G1 X111.334 Y219.021 E78.63198
G1 X112.203 Y218.845 E78.72634
G1 X113.21 Y218.615 E78.83628
G1 X113.664 Y218.499 E78.88615
G1 X114.864 Y218.166 E79.0187
G1 X115.591 Y217.941 E79.0997
G1 X116.755 Y217.549 E79.23042
G1 X117.336 Y217.334 E79.29636
G1 X118.178 Y217.006 E79.39253
G1 X118.885 Y216.712 E79.47403
G1 X119.783 Y216.314 E79.57857
G1 X120.604 Y215.923 E79.67535
G1 X121.89 Y215.261 E79.8293
G1 X122.889 Y214.697 E79.9514
G1 X123.512 Y214.327 E80.02852
G1 X124.569 Y213.659 E80.1616
G1 X124.938 Y213.413 E80.2088
G1 X125.943 Y212.706 E80.33958
G1 X126.586 Y212.231 E80.42466
G1 X127.297 Y211.678 E80.52053
G1 X127.998 Y211.105 E80.61689
G1 X128.736 Y210.469 E80.72059
G1 X129.137 Y210.109 E80.77794
G1 X129.949 Y209.342 E80.89682
G1 X130.406 Y208.894 E80.96494
G1 X131.211 Y208.057 E81.08853
G1 X131.673 Y207.556 E81.16107
G1 X132.668 Y206.402 E81.32324
G1 X133.527 Y205.32 E81.47028
G1 X134.051 Y204.617 E81.5636
G1 X134.662 Y203.755 E81.67606
G1 X135.053 Y203.172 E81.75077
G1 X135.675 Y202.193 E81.87422
G1 X136.007 Y201.637 E81.94314
G1 X136.602 Y200.592 E82.07113
G1 X137.285 Y199.272 E82.22931
G1 X137.524 Y198.779 E82.28762
G1 X137.974 Y197.789 E82.40337
G1 X138.519 Y196.497 E82.55261
G1 X164.066 Y133.28 E89.80958
G1 X164.618 Y131.862 E89.97154
G1 X164.79 Y131.379 E90.02611
