;FLAVOR:Marlin
;TIME:6356
;Filament used: 13.293m
;Layer height: 0.32
;MINX:48
;MINY:28
;MINZ:0.32
;MAXX:172
;MAXY:192
;MAXZ:15.04
;TARGET_MACHINE.NAME:Creality Ender-3 Pro
;Generated with Cura_SteamEngine 5.10.1
; Ender 3 Custom Start G-code
G92 E0 ; Reset Extruder
G28 ; Home all axes
G1 Z5.0 F3000 ; Move Z Axis up a bit during heating to not damage bed
M104 S175 ; Start heating up the nozzle most of the way
M190 S60 ; Start heating the bed, wait until target temperature reached
M109 S200 ; Finish heating the nozzle
G1 Z2.0 F3000 ; Move Z Axis up little to prevent scratching of Heat Bed
G1 X0.1 Y20 Z0.3 F5000.0 ; Move to start position
G1 X0.1 Y200.0 Z0.3 F1500.0 E15 ; Draw the first line
G1 X0.4 Y200.0 Z0.3 F5000.0 ; Move to side a little
G1 X0.4 Y20 Z0.3 F1500.0 E30 ; Draw the second line
G92 E0 ; Reset Extruder
G1 Z2.0 F3000 ; Move Z Axis up little to prevent scratching of Heat Bed
G1 X5 Y20 Z0.3 F5000.0 ; Move over to prevent blob squish
M82 ;absolute extrusion mode
G92 E0
G92 E0
G1 F1500 E-6.5
;LAYER_COUNT:47
;LAYER:0
M107
G0 F6000 X51.55 Y35.957 Z0.32
;TYPE:SKIRT
G1 F1500 E0
G1 F1200 X52.034 Y35.31 E0.086
G1 X52.697 Y34.506 E0.19691
G1 X53.3 Y33.846 E0.29206
G1 X53.955 Y33.197 E0.3902
G1 X54.642 Y32.58 E0.48848
G1 X54.998 Y32.283 E0.53782
G1 X55.646 Y31.778 E0.62526
G1 X56.464 Y31.201 E0.7318
G1 X56.959 Y30.882 E0.79448
G1 X57.666 Y30.463 E0.88195
G1 X58.583 Y29.976 E0.99246
G1 X59.361 Y29.614 E1.08379
G1 X60.226 Y29.259 E1.1833
G1 X61.129 Y28.94 E1.28523
G1 X62.048 Y28.666 E1.3873
G1 X62.928 Y28.453 E1.48366
G1 X63.905 Y28.264 E1.58958
G1 X64.734 Y28.147 E1.67868
G1 X65.681 Y28.055 E1.77995
G1 X66.477 Y28.013 E1.86479
G1 X67.533 Y28 E1.97719
G1 X109.445 Y28 E6.43798
G1 X110.873 Y28.017 E6.58998
G1 X112.038 Y28.047 E6.71401
G1 X113.169 Y28.089 E6.83447
G1 X113.8 Y28.127 E6.90175
G1 X115.232 Y28.233 E7.05458
G1 X116.194 Y28.319 E7.15738
G1 X116.904 Y28.397 E7.2334
G1 X118.277 Y28.568 E7.38066
G1 X119.476 Y28.737 E7.50953
G1 X121.246 Y29.042 E7.7007
G1 X122.495 Y29.281 E7.83604
G1 X124.065 Y29.629 E8.0072
G1 X125.435 Y29.959 E8.15718
G1 X127.043 Y30.4 E8.33464
G1 X128.343 Y30.784 E8.47891
G1 X130.099 Y31.361 E8.67564
G1 X130.983 Y31.668 E8.77524
G1 X131.54 Y31.873 E8.83841
G1 X132.908 Y32.401 E8.99448
G1 X133.791 Y32.755 E9.09573
G1 X135.746 Y33.611 E9.32288
G1 X136.773 Y34.088 E9.4434
G1 X138.456 Y34.931 E9.64374
G1 X139.563 Y35.512 E9.7768
G1 X140.98 Y36.31 E9.94989
G1 X141.997 Y36.906 E10.07534
G1 X142.505 Y37.216 E10.13868
G1 X143.63 Y37.929 E10.28044
G1 X144.719 Y38.643 E10.41904
G1 X146.259 Y39.724 E10.6193
G1 X147.229 Y40.431 E10.74705
G1 X148.57 Y41.473 E10.9278
G1 X149.601 Y42.305 E11.0688
G1 X150.893 Y43.414 E11.25002
G1 X151.933 Y44.341 E11.3983
G1 X153.147 Y45.495 E11.57657
G1 X153.896 Y46.228 E11.68811
G1 X154.304 Y46.642 E11.74998
G1 X155.359 Y47.752 E11.91297
G1 X156.174 Y48.635 E12.04086
G1 X157.372 Y50.019 E12.23568
G1 X158.138 Y50.939 E12.3631
G1 X159.203 Y52.297 E12.54678
G1 X160.009 Y53.366 E12.68927
G1 X161.006 Y54.774 E12.87289
G1 X161.734 Y55.845 E13.01072
G1 X162.745 Y57.436 E13.21135
G1 X163.349 Y58.429 E13.33505
G1 X164.268 Y60.045 E13.53292
G1 X164.828 Y61.071 E13.65732
G1 X165.604 Y62.605 E13.84029
G1 X166.191 Y63.819 E13.98381
G1 X166.867 Y65.331 E14.16009
G1 X167.306 Y66.363 E14.27945
G1 X167.597 Y67.087 E14.3625
G1 X168.071 Y68.317 E14.5028
G1 X168.509 Y69.515 E14.63856
G1 X169.072 Y71.211 E14.82875
G1 X169.43 Y72.361 E14.95694
G1 X169.924 Y74.137 E15.15314
G1 X170.157 Y75.031 E15.25147
G1 X170.32 Y75.711 E15.3259
G1 X170.63 Y77.103 E15.47768
G1 X170.87 Y78.26 E15.60344
G1 X171.189 Y80.078 E15.79989
G1 X171.336 Y81.001 E15.89937
G1 X171.435 Y81.732 E15.97788
G1 X171.597 Y83.064 E16.1207
G1 X171.734 Y84.339 E16.25718
G1 X171.866 Y86.102 E16.44534
G1 X171.922 Y87.078 E16.54939
G1 X171.95 Y87.774 E16.62353
G1 X171.985 Y89.277 E16.78354
G1 X172 Y90.575 E16.9217
G1 X171.999 Y129.571 E21.07214
G1 X171.983 Y130.875 E21.21094
G1 X171.953 Y132.038 E21.33476
G1 X171.897 Y133.441 E21.4842
G1 X171.769 Y135.203 E21.67223
G1 X171.681 Y136.189 E21.77759
G1 X171.603 Y136.903 E21.85403
G1 X171.432 Y138.28 E22.00172
G1 X171.265 Y139.464 E22.12898
G1 X170.958 Y141.245 E22.32133
G1 X170.723 Y142.477 E22.45482
G1 X170.37 Y144.067 E22.62817
G1 X170.041 Y145.435 E22.77792
G1 X169.6 Y147.043 E22.95538
G1 X169.216 Y148.343 E23.09966
G1 X168.639 Y150.1 E23.29648
G1 X168.336 Y150.972 E23.39474
G1 X167.599 Y152.908 E23.61521
G1 X167.245 Y153.791 E23.71647
G1 X166.924 Y154.539 E23.8031
G1 X166.39 Y155.742 E23.94318
G1 X166.002 Y156.583 E24.04176
G1 X165.679 Y157.248 E24.12044
G1 X165.135 Y158.329 E24.24925
G1 X164.488 Y159.564 E24.39764
G1 X163.689 Y160.983 E24.57096
G1 X162.968 Y162.208 E24.72224
G1 X162.008 Y163.729 E24.91368
G1 X161.324 Y164.769 E25.04616
G1 X160.258 Y166.285 E25.24341
G1 X159.741 Y166.998 E25.33715
G1 X159.303 Y167.576 E25.41433
G1 X158.526 Y168.572 E25.54878
G1 X157.695 Y169.601 E25.68955
G1 X156.589 Y170.889 E25.87024
G1 X155.663 Y171.928 E26.01837
G1 X154.507 Y173.146 E26.1971
G1 X153.767 Y173.901 E26.30962
G1 X153.32 Y174.341 E26.37637
G1 X152.25 Y175.359 E26.53356
G1 X151.59 Y175.97 E26.62929
G1 X150.981 Y176.509 E26.71584
G1 X149.969 Y177.38 E26.85795
G1 X149.061 Y178.137 E26.98378
G1 X147.69 Y179.213 E27.16927
G1 X146.633 Y180.009 E27.3101
G1 X145.267 Y180.976 E27.48823
G1 X144.348 Y181.606 E27.60682
G1 X143.797 Y181.965 E27.67681
G1 X142.551 Y182.753 E27.83372
G1 X141.782 Y183.224 E27.9297
G1 X141.214 Y183.557 E27.99977
G1 X140.08 Y184.199 E28.13847
G1 X138.928 Y184.828 E28.27816
G1 X137.269 Y185.668 E28.47608
G1 X136.18 Y186.191 E28.60466
G1 X134.668 Y186.867 E28.78094
G1 X133.394 Y187.408 E28.92825
G1 X131.683 Y188.071 E29.12355
G1 X130.485 Y188.509 E29.25931
G1 X128.789 Y189.072 E29.44951
G1 X127.639 Y189.43 E29.5777
G1 X125.859 Y189.926 E29.77436
G1 X124.718 Y190.219 E29.89974
G1 X123.034 Y190.601 E30.08353
G1 X121.736 Y190.871 E30.22464
G1 X120.077 Y191.163 E30.40392
G1 X119.007 Y191.333 E30.51923
G1 X118.265 Y191.436 E30.59896
G1 X117.043 Y191.585 E30.72999
G1 X115.661 Y191.734 E30.87793
G1 X113.898 Y191.866 E31.06609
G1 X112.922 Y191.922 E31.17014
G1 X112.226 Y191.95 E31.24428
G1 X110.723 Y191.985 E31.40429
G1 X109.425 Y192 E31.54245
G1 X67.45 Y191.999 E36.00995
G1 X66.215 Y191.974 E36.14142
G1 X65.394 Y191.917 E36.22901
G1 X64.636 Y191.838 E36.31013
G1 X63.606 Y191.684 E36.42097
G1 X62.756 Y191.511 E36.51329
G1 X62.052 Y191.336 E36.5905
G1 X61.43 Y191.156 E36.65942
G1 X60.561 Y190.866 E36.75692
G1 X59.96 Y190.639 E36.8253
G1 X59.556 Y190.471 E36.87187
G1 X58.932 Y190.192 E36.94462
G1 X58.377 Y189.92 E37.0104
G1 X57.56 Y189.478 E37.10926
G1 X56.916 Y189.093 E37.18912
G1 X56.382 Y188.744 E37.25702
G1 X55.691 Y188.256 E37.34705
G1 X54.962 Y187.687 E37.44548
G1 X54.5 Y187.297 E37.50983
G1 X54.13 Y186.963 E37.56288
G1 X53.551 Y186.41 E37.6481
G1 X53.164 Y186.008 E37.70749
G1 X52.634 Y185.419 E37.79182
G1 X52.286 Y185 E37.84979
G1 X51.738 Y184.3 E37.94441
G1 X51.211 Y183.551 E38.04188
G1 X50.881 Y183.04 E38.10662
G1 X50.424 Y182.266 E38.20229
G1 X50.011 Y181.488 E38.29604
G1 X49.599 Y180.606 E38.39965
G1 X49.429 Y180.203 E38.4462
G1 X49.108 Y179.367 E38.54151
G1 X48.835 Y178.541 E38.6341
G1 X48.658 Y177.918 E38.70303
G1 X48.452 Y177.071 E38.79581
G1 X48.367 Y176.66 E38.84048
G1 X48.212 Y175.76 E38.93768
G1 X48.097 Y174.817 E39.03879
G1 X48.027 Y173.852 E39.14176
G1 X48.009 Y173.301 E39.20044
G1 X48 Y172.449 E39.29112
G1 X48.003 Y164.377 E40.15025
G1 X48.013 Y163.745 E40.21752
G1 X48.076 Y162.72 E40.32682
G1 X48.116 Y162.344 E40.36706
G1 X48.288 Y161.236 E40.4864
G1 X48.498 Y160.367 E40.58156
G1 X48.727 Y159.599 E40.66685
G1 X49.098 Y158.596 E40.78067
G1 X49.324 Y158.086 E40.84004
G1 X49.578 Y157.578 E40.90049
G1 X50.031 Y156.76 E41.00001
G1 X51.238 Y154.769 E41.24782
G1 X52.478 Y152.6 E41.51373
G1 X53.648 Y150.41 E41.778
G1 X54.752 Y148.196 E42.04131
G1 X55.825 Y145.886 E42.3124
G1 X56.786 Y143.65 E42.57143
G1 X57.706 Y141.333 E42.83676
G1 X58.576 Y138.947 E43.10707
G1 X59.352 Y136.616 E43.36855
G1 X60.072 Y134.23 E43.63381
G1 X60.72 Y131.836 E43.89777
G1 X61.305 Y129.413 E44.16307
G1 X61.82 Y126.97 E44.4288
G1 X62.261 Y124.55 E44.69061
G1 X62.642 Y122.05 E44.95976
G1 X62.949 Y119.575 E45.2252
G1 X63.183 Y117.121 E45.48757
G1 X63.35 Y114.605 E45.75594
G1 X63.444 Y112.174 E46.01487
G1 X63.469 Y109.652 E46.28331
G1 X63.424 Y107.174 E46.54709
G1 X63.31 Y104.711 E46.80952
G1 X63.121 Y102.185 E47.07912
G1 X62.867 Y99.732 E47.34159
G1 X62.543 Y97.272 E47.60567
G1 X62.144 Y94.79 E47.87323
G1 X61.682 Y92.362 E48.13629
G1 X61.139 Y89.889 E48.40576
G1 X60.54 Y87.493 E48.66862
G1 X59.89 Y85.167 E48.92567
G1 X59.146 Y82.767 E49.1931
G1 X58.327 Y80.369 E49.4628
G1 X57.469 Y78.072 E49.72377
G1 X56.524 Y75.744 E49.99119
G1 X55.509 Y73.435 E50.25963
G1 X54.473 Y71.249 E50.5171
G1 X53.348 Y69.038 E50.78113
G1 X52.135 Y66.811 E51.05104
G1 X50.863 Y64.626 E51.32013
G1 X50.059 Y63.314 E51.4839
G1 X49.617 Y62.517 E51.5809
G1 X49.319 Y61.885 E51.65527
G1 X49.056 Y61.28 E51.72548
G1 X48.652 Y60.202 E51.84801
G1 X48.331 Y58.988 E51.98166
G1 X48.215 Y58.418 E52.04357
G1 X48.13 Y57.871 E52.10248
G1 X48.029 Y56.845 E52.21221
G1 X48.002 Y55.802 E52.32326
G1 X48 Y47.526 E53.20409
G1 X48.01 Y46.693 E53.29276
G1 X48.036 Y45.976 E53.36912
G1 X48.099 Y45.159 E53.45633
G1 X48.169 Y44.541 E53.52253
G1 X48.297 Y43.708 E53.61223
G1 X48.494 Y42.738 E53.71758
G1 X48.589 Y42.348 E53.7603
G1 X48.831 Y41.475 E53.85672
G1 X49.019 Y40.89 E53.92212
G1 X49.303 Y40.111 E54.01036
G1 X49.677 Y39.218 E54.11341
G1 X50.069 Y38.398 E54.21014
G1 X50.522 Y37.563 E54.31125
G1 X50.983 Y36.799 E54.40622
G1 X51.55 Y35.957 E54.51426
G0 F6000 X52.191 Y36.436
G1 F1200 X52.675 Y35.789 E54.60026
G1 X53.288 Y35.046 E54.70278
G1 X53.891 Y34.386 E54.79793
G1 X54.49 Y33.792 E54.88771
G1 X55.177 Y33.175 E54.98599
G1 X55.49 Y32.914 E55.02937
G1 X56.138 Y32.409 E55.11681
G1 X56.897 Y31.873 E55.2157
G1 X57.367 Y31.57 E55.27522
G1 X58.074 Y31.151 E55.36269
G1 X58.921 Y30.701 E55.46477
G1 X59.665 Y30.354 E55.55214
G1 X60.53 Y29.999 E55.65166
G1 X61.358 Y29.707 E55.7451
G1 X62.277 Y29.433 E55.84717
G1 X63.081 Y29.238 E55.93522
G1 X64.018 Y29.056 E56.03681
G1 X64.812 Y28.943 E56.12217
G1 X65.724 Y28.854 E56.2197
G1 X66.487 Y28.813 E56.30103
G1 X67.543 Y28.8 E56.41343
G1 X109.435 Y28.8 E60.87209
G1 X110.853 Y28.817 E61.02303
G1 X112.008 Y28.846 E61.14599
G1 X113.121 Y28.888 E61.26454
G1 X113.741 Y28.925 E61.33064
G1 X115.161 Y29.03 E61.48219
G1 X116.106 Y29.114 E61.58317
G1 X116.805 Y29.191 E61.65801
G1 X118.166 Y29.36 E61.80398
G1 X119.34 Y29.525 E61.93016
G1 X121.096 Y29.828 E62.11982
G1 X122.322 Y30.062 E62.25266
G1 X123.878 Y30.407 E62.42229
G1 X125.223 Y30.731 E62.56954
G1 X126.831 Y31.172 E62.747
G1 X128.093 Y31.544 E62.88703
G1 X129.837 Y32.117 E63.08241
G1 X130.707 Y32.419 E63.18043
G1 X131.252 Y32.619 E63.24221
G1 X132.61 Y33.144 E63.39717
G1 X133.493 Y33.498 E63.49843
G1 X134.214 Y33.807 E63.58191
G1 X135.409 Y34.337 E63.72105
G1 X136.436 Y34.814 E63.84157
G1 X138.084 Y35.639 E64.03772
G1 X139.171 Y36.209 E64.16835
G1 X140.576 Y37 E64.33996
G1 X141.58 Y37.588 E64.4638
G1 X142.077 Y37.892 E64.5258
G1 X143.191 Y38.598 E64.66618
G1 X144.259 Y39.298 E64.80209
G1 X145.788 Y40.371 E65.00089
G1 X146.738 Y41.063 E65.12599
G1 X148.068 Y42.096 E65.30522
G1 X149.08 Y42.912 E65.44358
G1 X150.361 Y44.011 E65.62322
G1 X151.382 Y44.921 E65.76879
G1 X152.588 Y46.067 E65.94586
G1 X153.326 Y46.789 E66.05574
G1 X153.724 Y47.193 E66.1161
G1 X154.771 Y48.294 E66.27781
G1 X155.569 Y49.159 E66.40307
G1 X156.757 Y50.531 E66.59623
G1 X157.508 Y51.433 E66.72115
G1 X158.573 Y52.791 E66.90483
G1 X159.356 Y53.828 E67.04313
G1 X160.344 Y55.224 E67.22515
G1 X161.072 Y56.295 E67.36298
G1 X162.062 Y57.852 E67.55936
G1 X162.654 Y58.824 E67.68049
G1 X163.566 Y60.428 E67.87687
G1 X164.114 Y61.432 E67.99861
G1 X164.884 Y62.953 E68.18006
G1 X165.461 Y64.146 E68.3211
G1 X166.131 Y65.644 E68.49576
G1 X166.564 Y66.661 E68.6134
G1 X166.851 Y67.375 E68.69531
G1 X167.32 Y68.592 E68.83412
G1 X167.75 Y69.767 E68.96729
G1 X168.308 Y71.449 E69.1559
G1 X168.659 Y72.576 E69.28154
G1 X169.15 Y74.339 E69.47632
G1 X169.379 Y75.217 E69.57289
G1 X169.539 Y75.885 E69.646
G1 X169.847 Y77.266 E69.79659
G1 X170.082 Y78.398 E69.91964
G1 X170.399 Y80.204 E70.1148
G1 X170.543 Y81.109 E70.21233
G1 X170.641 Y81.829 E70.28967
G1 X170.802 Y83.149 E70.4312
G1 X170.936 Y84.399 E70.565
G1 X171.067 Y86.149 E70.75178
G1 X171.123 Y87.11 E70.85424
G1 X171.15 Y87.793 E70.92699
G1 X171.185 Y89.286 E71.08593
G1 X171.2 Y90.575 E71.22314
G1 X171.199 Y129.561 E75.37251
G1 X171.183 Y130.855 E75.51024
G1 X171.154 Y132.006 E75.63279
G1 X171.099 Y133.383 E75.77946
G1 X170.972 Y135.132 E75.9661
G1 X170.886 Y136.102 E76.06975
G1 X170.809 Y136.805 E76.14502
G1 X170.64 Y138.169 E76.2913
G1 X170.477 Y139.328 E76.41587
G1 X170.172 Y141.095 E76.60672
G1 X169.942 Y142.304 E76.7377
G1 X169.592 Y143.88 E76.90952
G1 X169.269 Y145.223 E77.05654
G1 X168.828 Y146.831 E77.234
G1 X168.456 Y148.093 E77.37403
G1 X167.883 Y149.837 E77.56941
G1 X167.58 Y150.709 E77.66767
G1 X167.361 Y151.302 E77.73495
G1 X166.856 Y152.61 E77.88418
G1 X166.502 Y153.493 E77.98543
G1 X166.193 Y154.214 E78.06892
G1 X165.663 Y155.407 E78.20786
G1 X165.282 Y156.234 E78.30477
G1 X164.965 Y156.888 E78.38212
G1 X164.426 Y157.958 E78.50964
G1 X163.791 Y159.171 E78.65536
G1 X162.999 Y160.577 E78.82711
G1 X162.291 Y161.781 E78.97577
G1 X161.331 Y163.302 E79.1672
G1 X160.669 Y164.309 E79.29546
G1 X159.611 Y165.815 E79.49135
G1 X159.103 Y166.515 E79.58341
G1 X158.672 Y167.084 E79.65938
G1 X157.903 Y168.07 E79.79246
G1 X157.088 Y169.08 E79.93059
G1 X155.992 Y170.357 E80.1097
G1 X155.083 Y171.377 E80.25512
G1 X153.935 Y172.586 E80.43256
G1 X153.206 Y173.331 E80.5435
G1 X152.768 Y173.762 E80.6089
G1 X151.707 Y174.772 E80.76481
G1 X151.06 Y175.371 E80.85865
G1 X150.459 Y175.903 E80.94408
G1 X149.457 Y176.766 E81.08483
G1 X148.567 Y177.508 E81.20815
G1 X147.209 Y178.574 E81.3919
G1 X146.171 Y179.356 E81.53022
G1 X144.815 Y180.316 E81.70705
G1 X143.911 Y180.936 E81.82372
G1 X143.37 Y181.289 E81.89247
G1 X142.133 Y182.071 E82.04823
G1 X141.378 Y182.534 E82.1425
G1 X140.82 Y182.861 E82.21133
G1 X139.697 Y183.497 E82.34869
G1 X138.567 Y184.114 E82.48572
G1 X136.922 Y184.947 E82.68197
G1 X135.854 Y185.461 E82.80812
G1 X134.355 Y186.131 E82.98287
G1 X133.105 Y186.662 E83.12742
G1 X131.408 Y187.32 E83.32114
G1 X130.233 Y187.75 E83.45431
G1 X128.551 Y188.308 E83.64292
G1 X127.424 Y188.659 E83.76855
G1 X125.659 Y189.151 E83.96357
G1 X124.541 Y189.439 E84.08644
G1 X122.871 Y189.818 E84.26871
G1 X121.597 Y190.083 E84.4072
G1 X119.951 Y190.373 E84.58509
G1 X118.897 Y190.541 E84.69868
G1 X118.168 Y190.642 E84.77701
G1 X116.957 Y190.79 E84.90686
G1 X115.601 Y190.936 E85.05202
G1 X113.851 Y191.067 E85.2388
G1 X112.89 Y191.123 E85.34125
G1 X112.207 Y191.15 E85.414
G1 X110.714 Y191.185 E85.57295
G1 X109.425 Y191.2 E85.71015
G1 X67.466 Y191.199 E90.17595
G1 X66.231 Y191.174 E90.30742
G1 X65.477 Y191.121 E90.38787
G1 X64.719 Y191.042 E90.46898
G1 X63.765 Y190.9 E90.57164
G1 X62.948 Y190.734 E90.66037
G1 X62.273 Y190.567 E90.73438
G1 X61.683 Y190.397 E90.79973
G1 X60.843 Y190.117 E90.89397
G1 X60.267 Y189.9 E90.95948
G1 X59.882 Y189.74 E91.00385
G1 X59.283 Y189.473 E91.07365
G1 X58.757 Y189.216 E91.13596
G1 X57.97 Y188.791 E91.23116
G1 X57.326 Y188.406 E91.31101
G1 X56.843 Y188.09 E91.37244
G1 X56.183 Y187.625 E91.45837
G1 X55.478 Y187.076 E91.55347
G1 X55.036 Y186.703 E91.61503
G1 X54.682 Y186.384 E91.66575
G1 X54.126 Y185.854 E91.7475
G1 X53.758 Y185.473 E91.80388
G1 X53.249 Y184.908 E91.88482
G1 X52.916 Y184.507 E91.9403
G1 X52.368 Y183.807 E92.03491
G1 X51.883 Y183.117 E92.12468
G1 X51.57 Y182.633 E92.18602
G1 X51.131 Y181.891 E92.27778
G1 X50.718 Y181.113 E92.37153
G1 X50.336 Y180.294 E92.46772
G1 X50.176 Y179.916 E92.5114
G1 X49.868 Y179.116 E92.60264
G1 X49.595 Y178.29 E92.69523
G1 X49.435 Y177.729 E92.75732
G1 X49.235 Y176.908 E92.84726
G1 X49.155 Y176.523 E92.88911
G1 X49.006 Y175.663 E92.98201
G1 X48.895 Y174.759 E93.07894
G1 X48.827 Y173.825 E93.17861
