;FLAVOR:Marlin
;TIME:7513
;Filament used: 14.3812m
;Layer height: 0.32
;MINX:48.4
;MINY:28.401
;MINZ:0.32
;MAXX:171.6
;MAXY:191.6
;MAXZ:15.04
;TARGET_MACHINE.NAME:Creality Ender-3 Pro
;Generated with Cura_SteamEngine 5.10.1
; Ender 3 Custom Start G-code
G92 E0 ; Reset Extruder
G28 ; Home all axes
G1 Z5.0 F3000 ; Move Z Axis up a bit during heating to not damage bed
M104 S175 ; Start heating up the nozzle most of the way
M190 S60 ; Start heating the bed, wait until target temperature reached
M109 S200 ; Finish heating the nozzle
G1 Z2.0 F3000 ; Move Z Axis up little to prevent scratching of Heat Bed
G1 X0.1 Y20 Z0.3 F5000.0 ; Move to start position
G1 X0.1 Y200.0 Z0.3 F1500.0 E15 ; Draw the first line
G1 X0.4 Y200.0 Z0.3 F5000.0 ; Move to side a little
G1 X0.4 Y20 Z0.3 F1500.0 E30 ; Draw the second line
G92 E0 ; Reset Extruder
G1 Z2.0 F3000 ; Move Z Axis up little to prevent scratching of Heat Bed
G1 X5 Y20 Z0.3 F5000.0 ; Move over to prevent blob squish
M82 ;absolute extrusion mode
G92 E0
G92 E0
G1 F1500 E-6.5
;LAYER_COUNT:47
;LAYER:0
M107
G0 F6000 X51.821 Y36.277 Z0.32
;TYPE:SKIRT
G1 F1500 E0
G1 F1200 X52.347 Y35.57 E0.09379
G1 X52.748 Y35.064 E0.1625
G1 X53.246 Y34.492 E0.24322
G1 X53.84 Y33.87 E0.33476
G1 X54.45 Y33.287 E0.42457
G1 X55.166 Y32.665 E0.52552
G1 X55.609 Y32.318 E0.58541
G1 X56.252 Y31.841 E0.67062
G1 X56.801 Y31.458 E0.74186
G1 X57.475 Y31.036 E0.8265
G1 X58.221 Y30.614 E0.91772
G1 X59.056 Y30.193 E1.01725
G1 X59.621 Y29.937 E1.08327
G1 X60.401 Y29.63 E1.17249
G1 X61.232 Y29.336 E1.2663
G1 X62.092 Y29.072 E1.36205
G1 X63.035 Y28.838 E1.46546
G1 X63.663 Y28.712 E1.53363
G1 X64.297 Y28.607 E1.60203
G1 X64.808 Y28.538 E1.65691
G1 X65.307 Y28.486 E1.71031
G1 X66.232 Y28.424 E1.80898
G1 X67.486 Y28.401 E1.94247
G1 X109.407 Y28.401 E6.40422
G1 X110.892 Y28.418 E6.56228
G1 X112.048 Y28.448 E6.68536
G1 X113.387 Y28.502 E6.82799
G1 X115.054 Y28.62 E7.00586
G1 X116.425 Y28.745 E7.15238
G1 X118.066 Y28.944 E7.32832
G1 X119.382 Y29.127 E7.46973
G1 X121.032 Y29.409 E7.64789
G1 X122.415 Y29.673 E7.79774
G1 X124.006 Y30.026 E7.97119
G1 X125.279 Y30.333 E8.11057
G1 X127.131 Y30.842 E8.31499
G1 X127.984 Y31.093 E8.40962
G1 X129.83 Y31.693 E8.61622
G1 X131.076 Y32.128 E8.75668
G1 X132.833 Y32.802 E8.95697
G1 X133.878 Y33.227 E9.07704
G1 X135.424 Y33.906 E9.25675
G1 X136.67 Y34.483 E9.4029
G1 X138.153 Y35.224 E9.57934
G1 X139.124 Y35.73 E9.69588
G1 X140.815 Y36.677 E9.90216
G1 X142.019 Y37.385 E10.05082
G1 X143.5 Y38.32 E10.23723
G1 X144.298 Y38.842 E10.33872
G1 X144.883 Y39.241 E10.41408
G1 X146.064 Y40.075 E10.56796
G1 X146.983 Y40.749 E10.68926
G1 X148.455 Y41.894 E10.88774
G1 X149.333 Y42.604 E11.00792
G1 X150.599 Y43.69 E11.18545
G1 X151.651 Y44.627 E11.33539
G1 X152.839 Y45.753 E11.5096
G1 X153.64 Y46.538 E11.62897
G1 X155.075 Y48.033 E11.84952
G1 X155.677 Y48.683 E11.94382
G1 X156.2 Y49.272 E12.02765
G1 X157.078 Y50.294 E12.17106
G1 X157.7 Y51.039 E12.27435
G1 X158.861 Y52.512 E12.47397
G1 X159.69 Y53.609 E12.62031
G1 X160.749 Y55.107 E12.81557
G1 X161.275 Y55.879 E12.91499
G1 X161.651 Y56.453 E12.98803
G1 X162.376 Y57.599 E13.13236
G1 X162.991 Y58.605 E13.25785
G1 X163.926 Y60.25 E13.45924
G1 X164.337 Y60.999 E13.55017
G1 X164.729 Y61.754 E13.64071
G1 X165.327 Y62.945 E13.78255
G1 X165.837 Y64.006 E13.90785
G1 X166.579 Y65.673 E14.10205
G1 X167.044 Y66.773 E14.22916
G1 X167.652 Y68.338 E14.40785
G1 X168.101 Y69.559 E14.54631
G1 X168.626 Y71.135 E14.72311
G1 X169.048 Y72.48 E14.87315
G1 X169.52 Y74.179 E15.06082
G1 X169.831 Y75.379 E15.19276
G1 X170.211 Y77.053 E15.37546
G1 X170.477 Y78.334 E15.51471
G1 X170.787 Y80.099 E15.70544
G1 X170.936 Y81.039 E15.80673
G1 X171.04 Y81.789 E15.88732
G1 X171.186 Y82.983 E16.01535
G1 X171.308 Y84.091 E16.13399
G1 X171.458 Y86 E16.3378
G1 X171.536 Y87.36 E16.48278
G1 X171.582 Y89.134 E16.67166
G1 X171.599 Y90.612 E16.82897
G1 X171.6 Y129.407 E20.95802
G1 X171.583 Y130.895 E21.1164
G1 X171.553 Y132.048 E21.23916
G1 X171.499 Y133.381 E21.38115
G1 X171.381 Y135.048 E21.55902
G1 X171.286 Y136.129 E21.67451
G1 X171.209 Y136.84 E21.75063
G1 X171.057 Y138.066 E21.88212
G1 X170.876 Y139.369 E22.02213
G1 X170.59 Y141.037 E22.20225
G1 X170.377 Y142.165 E22.32443
G1 X169.945 Y144.125 E22.53804
G1 X169.728 Y145.033 E22.6374
G1 X169.173 Y147.074 E22.86252
G1 X168.912 Y147.967 E22.96154
G1 X168.684 Y148.687 E23.04192
G1 X168.258 Y149.973 E23.18611
G1 X167.872 Y151.076 E23.31048
G1 X167.256 Y152.687 E23.49405
G1 X166.764 Y153.898 E23.63317
G1 X166.091 Y155.429 E23.81117
G1 X165.514 Y156.678 E23.9576
G1 X164.702 Y158.298 E24.15047
G1 X164.27 Y159.125 E24.24978
G1 X163.933 Y159.744 E24.32479
G1 X163.311 Y160.837 E24.45864
G1 X162.774 Y161.755 E24.57183
G1 X162.424 Y162.327 E24.6432
G1 X161.73 Y163.422 E24.78118
G1 X161.006 Y164.523 E24.92143
G1 X160.034 Y165.913 E25.10196
G1 X159.298 Y166.923 E25.23497
G1 X158.14 Y168.413 E25.43581
G1 X157.351 Y169.39 E25.56947
G1 X156.207 Y170.72 E25.75619
G1 X155.408 Y171.614 E25.8838
G1 X154.246 Y172.843 E26.06382
G1 X153.463 Y173.641 E26.18281
G1 X151.968 Y175.076 E26.40336
G1 X151.317 Y175.678 E26.49773
G1 X150.73 Y176.199 E26.58127
G1 X149.82 Y176.983 E26.70911
G1 X148.764 Y177.864 E26.85548
G1 X147.333 Y178.981 E27.04869
G1 X146.599 Y179.538 E27.14676
G1 X144.877 Y180.762 E27.37162
G1 X143.962 Y181.384 E27.48937
G1 X142.403 Y182.373 E27.68587
G1 X141.272 Y183.062 E27.82683
G1 X139.865 Y183.862 E27.99909
G1 X138.746 Y184.473 E28.13479
G1 X137.085 Y185.313 E28.33289
G1 X135.973 Y185.848 E28.46423
G1 X134.332 Y186.578 E28.65539
G1 X133.489 Y186.936 E28.75287
G1 X132.779 Y187.221 E28.83429
G1 X131.66 Y187.653 E28.96196
G1 X130.677 Y188.017 E29.07352
G1 X129.951 Y188.269 E29.15532
G1 X128.868 Y188.626 E29.27668
G1 X127.544 Y189.04 E29.42433
G1 X125.952 Y189.485 E29.60026
G1 X124.578 Y189.842 E29.75136
G1 X122.942 Y190.211 E29.92986
G1 X121.668 Y190.476 E30.06835
G1 X119.85 Y190.795 E30.2648
G1 X118.731 Y190.971 E30.38537
G1 X117.042 Y191.185 E30.56657
G1 X115.705 Y191.328 E30.70968
G1 X113.997 Y191.459 E30.892
G1 X112.642 Y191.537 E31.03645
G1 X110.874 Y191.582 E31.22469
G1 X109.388 Y191.6 E31.38286
G1 X67.49 Y191.599 E35.84216
G1 X66.383 Y191.581 E35.96
G1 X65.535 Y191.532 E36.0504
G1 X64.626 Y191.438 E36.14767
G1 X64.247 Y191.386 E36.18838
G1 X63.534 Y191.264 E36.26537
G1 X62.853 Y191.114 E36.33959
G1 X62.093 Y190.924 E36.42297
G1 X61.469 Y190.748 E36.49197
G1 X60.683 Y190.484 E36.58022
G1 X59.77 Y190.129 E36.68448
G1 X58.989 Y189.777 E36.77566
G1 X58.272 Y189.416 E36.8611
G1 X57.495 Y188.978 E36.95603
G1 X56.772 Y188.523 E37.04695
G1 X56.241 Y188.151 E37.11595
G1 X55.249 Y187.404 E37.24812
G1 X54.766 Y186.999 E37.31521
G1 X54.319 Y186.595 E37.37934
G1 X53.835 Y186.126 E37.45107
G1 X53.469 Y185.749 E37.50699
G1 X53.049 Y185.288 E37.57337
G1 X52.724 Y184.906 E37.62675
G1 X52.316 Y184.388 E37.69693
G1 X51.854 Y183.763 E37.77965
G1 X51.269 Y182.888 E37.89167
G1 X50.809 Y182.122 E37.98677
G1 X50.376 Y181.322 E38.08359
G1 X50.184 Y180.925 E38.13053
G1 X49.963 Y180.417 E38.18949
G1 X49.646 Y179.648 E38.27802
G1 X49.369 Y178.874 E38.36551
G1 X49.146 Y178.18 E38.44309
G1 X48.993 Y177.613 E38.5056
G1 X48.859 Y177.024 E38.56989
G1 X48.684 Y176.149 E38.66486
G1 X48.542 Y175.225 E38.76436
G1 X48.477 Y174.602 E38.83103
G1 X48.427 Y173.825 E38.9139
G1 X48.411 Y173.318 E38.96789
G1 X48.4 Y172.341 E39.07188
G1 X48.402 Y164.513 E39.90503
G1 X48.413 Y163.833 E39.97741
G1 X48.445 Y163.149 E40.05029
G1 X48.509 Y162.411 E40.12914
G1 X48.665 Y161.391 E40.23896
G1 X48.842 Y160.62 E40.32315
G1 X49.006 Y160.032 E40.38812
G1 X49.322 Y159.115 E40.49135
G1 X49.674 Y158.292 E40.58662
G1 X49.952 Y157.714 E40.65489
G1 X50.346 Y156.995 E40.74215
G1 X51.742 Y154.697 E41.02832
G1 X52.991 Y152.512 E41.29619
G1 X54.161 Y150.319 E41.56074
G1 X55.267 Y148.098 E41.82481
G1 X56.306 Y145.855 E42.08791
G1 X57.287 Y143.569 E42.35267
G1 X58.211 Y141.238 E42.61955
G1 X59.064 Y138.893 E42.88513
G1 X59.828 Y136.594 E43.14297
G1 X60.567 Y134.141 E43.41564
G1 X61.207 Y131.777 E43.67631
G1 X61.795 Y129.33 E43.94416
G1 X62.308 Y126.889 E44.20964
G1 X62.746 Y124.475 E44.47076
G1 X63.128 Y121.963 E44.74119
G1 X63.427 Y119.541 E45.00093
G1 X63.663 Y117.048 E45.26745
G1 X63.83 Y114.541 E45.53487
G1 X63.921 Y112.138 E45.79081
G1 X63.946 Y109.552 E46.06606
G1 X63.899 Y107.103 E46.32676
G1 X63.783 Y104.617 E46.59164
G1 X63.594 Y102.121 E46.85805
G1 X63.337 Y99.648 E47.12268
G1 X63.016 Y97.224 E47.38292
G1 X62.614 Y94.733 E47.65148
G1 X62.143 Y92.262 E47.9192
G1 X61.615 Y89.86 E48.18096
G1 X61.009 Y87.437 E48.44679
G1 X60.35 Y85.085 E48.70676
G1 X59.612 Y82.708 E48.97166
G1 X58.786 Y80.295 E49.24311
G1 X57.924 Y77.991 E49.50493
G1 X56.975 Y75.658 E49.773
G1 X55.992 Y73.425 E50.03267
G1 X54.909 Y71.143 E50.30151
G1 X53.773 Y68.912 E50.56797
G1 X52.617 Y66.795 E50.82469
G1 X51.312 Y64.555 E51.10061
G1 X50.449 Y63.148 E51.27629
G1 X50.052 Y62.461 E51.36074
G1 X49.578 Y61.505 E51.47431
G1 X49.162 Y60.425 E51.59749
G1 X48.901 Y59.581 E51.69151
G1 X48.665 Y58.576 E51.80139
G1 X48.514 Y57.565 E51.91018
G1 X48.465 Y57.08 E51.96207
G1 X48.41 Y56.132 E52.06313
G1 X48.4 Y55.345 E52.1469
G1 X48.401 Y47.563 E52.97516
G1 X48.419 Y46.523 E53.08587
G1 X48.442 Y45.921 E53.14998
G1 X48.498 Y45.192 E53.2278
G1 X48.563 Y44.619 E53.28918
G1 X48.709 Y43.688 E53.38948
G1 X48.885 Y42.824 E53.48333
G1 X49.013 Y42.298 E53.54094
G1 X49.174 Y41.731 E53.60368
G1 X49.364 Y41.15 E53.66874
G1 X49.648 Y40.354 E53.75869
G1 X49.908 Y39.69 E53.83458
G1 X50.214 Y39.009 E53.91404
G1 X50.588 Y38.266 E54.00258
G1 X51.044 Y37.462 E54.10095
G1 X51.428 Y36.844 E54.17839
G1 X51.821 Y36.277 E54.25182
G0 F6000 X52.479 Y36.733
G1 F1200 X52.975 Y36.066 E54.34028
G1 X53.352 Y35.589 E54.405
G1 X53.825 Y35.045 E54.48172
G1 X54.419 Y34.423 E54.57326
G1 X54.975 Y33.891 E54.65516
G1 X55.66 Y33.295 E54.7518
G1 X56.086 Y32.961 E54.80941
G1 X56.729 Y32.484 E54.89463
G1 X57.226 Y32.136 E54.9592
G1 X57.9 Y31.714 E55.04384
G1 X58.582 Y31.328 E55.12724
G1 X59.386 Y30.922 E55.22311
G1 X59.951 Y30.666 E55.28913
G1 X60.668 Y30.384 E55.37113
G1 X61.467 Y30.101 E55.46134
G1 X62.327 Y29.837 E55.55709
G1 X63.193 Y29.622 E55.65206
G1 X63.794 Y29.501 E55.71731
G1 X64.404 Y29.4 E55.78312
G1 X64.891 Y29.334 E55.83542
G1 X65.39 Y29.282 E55.88882
G1 X66.257 Y29.224 E55.9813
G1 X66.739 Y29.209 E56.03263
G1 X67.494 Y29.201 E56.11299
G1 X109.398 Y29.201 E60.57294
G1 X110.872 Y29.218 E60.72983
G1 X112.016 Y29.247 E60.85163
G1 X113.33 Y29.3 E60.99159
G1 X114.982 Y29.417 E61.16786
G1 X116.329 Y29.539 E61.31181
G1 X117.956 Y29.736 E61.48624
G1 X119.247 Y29.916 E61.62497
G1 X120.882 Y30.195 E61.80151
G1 X122.242 Y30.454 E61.94885
G1 X123.818 Y30.804 E62.12068
G1 X125.091 Y31.111 E62.26005
G1 X126.906 Y31.61 E62.46039
G1 X127.737 Y31.854 E62.55257
G1 X129.566 Y32.448 E62.75725
G1 X130.79 Y32.875 E62.89522
G1 X132.532 Y33.543 E63.09379
G1 X133.556 Y33.959 E63.21143
G1 X135.088 Y34.632 E63.38952
G1 X136.313 Y35.199 E63.53319
G1 X137.783 Y35.933 E63.70806
G1 X138.733 Y36.428 E63.82208
G1 X140.41 Y37.367 E64.02664
G1 X141.592 Y38.061 E64.17252
G1 X143.063 Y38.99 E64.3577
G1 X143.847 Y39.502 E64.45736
G1 X144.422 Y39.895 E64.53148
G1 X145.591 Y40.72 E64.68377
G1 X146.492 Y41.38 E64.80264
G1 X147.952 Y42.516 E64.99953
G1 X148.812 Y43.211 E65.11721
G1 X150.067 Y44.287 E65.29316
G1 X151.101 Y45.208 E65.44053
G1 X152.279 Y46.324 E65.61324
G1 X153.063 Y47.092 E65.73005
G1 X154.488 Y48.576 E65.94902
G1 X155.079 Y49.215 E66.04166
G1 X155.593 Y49.793 E66.12399
G1 X156.464 Y50.807 E66.26626
G1 X157.072 Y51.534 E66.36713
G1 X158.223 Y52.994 E66.565
G1 X159.037 Y54.071 E66.70868
G1 X160.088 Y55.558 E66.90249
G1 X160.606 Y56.318 E67.00038
G1 X160.975 Y56.881 E67.07202
G1 X161.693 Y58.016 E67.21497
G1 X162.308 Y59.022 E67.34046
G1 X163.225 Y60.635 E67.53794
G1 X163.627 Y61.367 E67.62682
G1 X164.014 Y62.113 E67.71627
G1 X164.606 Y63.292 E67.85669
G1 X165.106 Y64.331 E67.97941
G1 X165.842 Y65.985 E68.17209
G1 X166.298 Y67.063 E68.29667
G1 X166.901 Y68.614 E68.47378
G1 X167.342 Y69.812 E68.60965
G1 X167.863 Y71.374 E68.7849
G1 X168.277 Y72.695 E68.93224
G1 X168.746 Y74.38 E69.1184
G1 X169.051 Y75.556 E69.2477
G1 X169.428 Y77.216 E69.42888
G1 X169.689 Y78.472 E69.56541
G1 X169.997 Y80.225 E69.75485
G1 X170.144 Y81.149 E69.85443
G1 X170.246 Y81.886 E69.93362
G1 X170.391 Y83.07 E70.06057
G1 X170.51 Y84.154 E70.17664
G1 X170.659 Y86.046 E70.37863
G1 X170.736 Y87.381 E70.52096
G1 X170.782 Y89.143 E70.70856
G1 X170.799 Y90.612 E70.86492
G1 X170.8 Y129.398 E74.993
G1 X170.783 Y130.875 E75.15021
G1 X170.754 Y132.016 E75.27169
G1 X170.701 Y133.325 E75.41113
G1 X170.584 Y134.978 E75.5875
G1 X170.491 Y136.043 E75.70128
G1 X170.415 Y136.742 E75.77612
G1 X170.265 Y137.956 E75.90631
G1 X170.088 Y139.234 E76.04363
G1 X169.804 Y140.889 E76.22235
G1 X169.594 Y142.001 E76.34279
G1 X169.469 Y142.597 E76.40761
G1 X169.167 Y143.939 E76.55401
G1 X168.956 Y144.823 E76.65074
G1 X168.405 Y146.85 E76.87431
G1 X168.149 Y147.726 E76.97144
G1 X167.925 Y148.435 E77.05058
G1 X167.503 Y149.709 E77.19342
G1 X167.125 Y150.79 E77.3153
G1 X166.515 Y152.386 E77.49715
G1 X166.032 Y153.576 E77.63384
G1 X165.365 Y155.094 E77.81032
G1 X164.799 Y156.32 E77.95404
G1 X163.993 Y157.928 E78.14548
G1 X163.568 Y158.742 E78.24321
G1 X163.237 Y159.349 E78.3168
G1 X162.621 Y160.433 E78.4495
G1 X162.092 Y161.337 E78.56097
G1 X161.748 Y161.899 E78.6311
G1 X161.061 Y162.983 E78.7677
G1 X160.35 Y164.065 E78.90549
G1 X159.387 Y165.442 E79.08434
G1 X158.666 Y166.432 E79.21469
G1 X157.518 Y167.91 E79.41387
G1 X156.744 Y168.868 E79.54495
G1 X155.61 Y170.187 E79.73009
G1 X154.827 Y171.064 E79.85522
G1 X153.674 Y172.283 E80.0338
G1 X152.909 Y173.064 E80.15016
G1 X151.425 Y174.489 E80.36913
G1 X150.786 Y175.08 E80.46177
G1 X150.208 Y175.593 E80.54402
G1 X149.307 Y176.369 E80.67058
G1 X148.272 Y177.233 E80.81408
G1 X146.849 Y178.344 E81.00623
G1 X146.129 Y178.891 E81.10246
G1 X145.626 Y179.256 E81.16861
G1 X144.427 Y180.1 E81.32467
G1 X143.512 Y180.722 E81.44242
G1 X141.987 Y181.69 E81.63467
G1 X140.876 Y182.367 E81.77314
G1 X139.482 Y183.16 E81.94383
G1 X138.385 Y183.759 E82.07686
G1 X136.738 Y184.592 E82.2733
G1 X135.648 Y185.117 E82.40207
G1 X134.019 Y185.842 E82.59184
G1 X133.191 Y186.194 E82.6876
G1 X132.491 Y186.475 E82.76788
G1 X131.382 Y186.903 E82.8944
G1 X130.415 Y187.261 E83.00415
G1 X129.701 Y187.509 E83.0846
G1 X128.629 Y187.862 E83.20472
G1 X127.305 Y188.276 E83.35236
G1 X125.751 Y188.711 E83.52412
G1 X124.402 Y189.062 E83.67247
G1 X122.779 Y189.428 E83.84955
G1 X121.53 Y189.688 E83.98534
G1 X119.726 Y190.005 E84.18028
G1 X118.63 Y190.177 E84.29836
G1 X116.941 Y190.391 E84.47956
G1 X115.644 Y190.53 E84.61839
G1 X113.951 Y190.66 E84.79911
G1 X112.621 Y190.737 E84.94091
G1 X110.859 Y190.783 E85.1285
G1 X109.388 Y190.8 E85.28508
G1 X67.503 Y190.799 E89.743
G1 X66.428 Y190.782 E89.85743
G1 X65.617 Y190.736 E89.94388
G1 X64.708 Y190.642 E90.04115
G1 X64.382 Y190.597 E90.07617
G1 X63.669 Y190.475 E90.15316
G1 X63.047 Y190.338 E90.22095
G1 X62.31 Y190.154 E90.3018
G1 X61.686 Y189.978 E90.3708
G1 X60.973 Y189.738 E90.45087
G1 X60.06 Y189.383 E90.55513
G1 X59.349 Y189.062 E90.63816
G1 X58.632 Y188.701 E90.7236
G1 X57.888 Y188.281 E90.81453
G1 X57.23 Y187.867 E90.89727
G1 X56.722 Y187.512 E90.96324
G1 X55.763 Y186.791 E91.09093
G1 X55.302 Y186.405 E91.15493
G1 X54.875 Y186.02 E91.21612
G1 X54.409 Y185.569 E91.28514
G1 X54.06 Y185.209 E91.33851
G1 X53.657 Y184.768 E91.40209
G1 X53.352 Y184.411 E91.45206
G1 X52.959 Y183.912 E91.51967
G1 X52.519 Y183.318 E91.59834
G1 X51.934 Y182.443 E91.71037
G1 X51.513 Y181.741 E91.79749
G1 X51.08 Y180.941 E91.89431
G1 X50.918 Y180.606 E91.93391
G1 X50.703 Y180.112 E91.99125
G1 X50.386 Y179.343 E92.07978
G1 X50.13 Y178.628 E92.16061
G1 X49.918 Y177.971 E92.23409
G1 X49.773 Y177.436 E92.29308
G1 X49.639 Y176.847 E92.35737
G1 X49.475 Y176.027 E92.44638
G1 X49.333 Y175.103 E92.54588
G1 X49.273 Y174.52 E92.60825
G1 X49.227 Y173.799 E92.68515
G1 X49.211 Y173.309 E92.73733
G1 X49.2 Y172.341 E92.84036
G1 X49.202 Y164.525 E93.67224
G1 X49.212 Y163.87 E93.74196
G1 X49.242 Y163.216 E93.81164
G1 X49.3 Y162.53 E93.88491
